assets/symbols/mulberry/floor.svg

<svg height="850.394" viewBox="0 0 850.394 850.394" width="850.394" xmlns="http://www.w3.org/2000/svg"><path d="m742.53 120.61v605.52l-12.96 5.04-115.83-134.27h-.14v-345.97h.8l116.46-134.99z" fill="#fff5b4"/><path d="m730.86 115.94-116.46 134.99h-.8v-1.35h-379.72v.67l-115.3-133.64 6.86-2.94 299.1-.08h300.44z" fill="#fff"/><path d="m424.25 596.98h189.35v-.08h.14l115.83 134.27-7.93 3.08-297.9.08h-300.68l-3.03-5.38 113.85-131.97z" fill="#f6cc4b"/><path d="m424.25 596.98h-190.37v-347.4h379.72v347.4h-42.02v-216.83h-112.14v216.83zm-43.82-118.36v-100h-112.15v100z" fill="#fff5b4"/><path d="m571.58 592.37v4.61h-112.14v-216.83h112.14z" fill="#9c5c25"/><path d="m233.88 250.25v346.73l-113.85 131.97-13.31-23.67v-583.59l11.86-5.08z" fill="#fff5b4"/><g fill="none"><g><g stroke="#231f20"><path d="m613.6 596.9v.08h-379.72v-347.4h379.72v1.35z" stroke-width="18.321"/><path d="m613.74 596.9 115.83 134.27 2.66 3.08h-10.59l-297.9.08h-308.35l4.64-5.38 113.85-131.97m.66-345.96-.66-.77-115.3-133.64-2.53-2.94h9.39l299.1-.08h308.35l-2.03 2.35-116.46 134.99m-507.68-145.25v636.65m635.81-636.82v636.65m-362.1-320.79v57.25h-112.15v-100h112.15zm79.01 171v-212.22h112.14v212.22" stroke-width="18.321"/><path d="m324.31 380.15v93.13m0-51.91h56.12" stroke-width="12.214"/><path d="m424.25 508.19v187.33m54.79-61.24-54.99 62.43-54.98-62.53" stroke-width="24.428"/></g><path d="m712 738 9.64-3.75 7.93-3.08 12.96-5.04 5.47-2.13" stroke="#f6cc4b"/></g><path d="m0 0h850.394v850.394h-850.394z"/></g></svg>

<svg xmlns="http://www.w3.org/2000/svg" width="850.394" height="850.394" viewBox="0 0 850.394 850.394" overflow="visible"><path fill="#fff5b4" d="M742.53 120.61v605.52l-12.96 5.04L613.74 596.9h-.14V250.93h.8l116.46-134.99z"/><path fill="#fff" d="M730.86 115.94L614.4 250.93h-.8v-1.35H233.88v.67l-115.3-133.64 6.86-2.94 299.1-.08h300.44z"/><path fill="#f6cc4b" d="M424.25 596.98H613.6v-.08h.14l115.83 134.27-7.93 3.08-297.9.08H123.06l-3.03-5.38 113.85-131.97z"/><path d="M424.25 596.98H233.88V249.58H613.6V596.98h-42.02V380.15H459.44v216.83h-35.19zm-43.82-118.36v-100H268.28v100h112.15z" fill="#fff5b4"/><path fill="#9c5c25" d="M571.58 592.37v4.61H459.44V380.15h112.14z"/><path fill="#fff5b4" d="M233.88 250.25v346.73L120.03 728.95l-13.31-23.67V121.69l11.86-5.08z"/><g fill="none"><path stroke="#231f20" stroke-width="18.321" d="M613.6 596.9v.08H233.88V249.58H613.6v1.35z"/><path stroke="#231f20" stroke-width="18.321" d="M613.74 596.9l115.83 134.27 2.66 3.08h-10.59l-297.9.08H115.39l4.64-5.38 113.85-131.97M234.54 251.02l-.66-.77-115.3-133.64-2.53-2.94h9.39l299.1-.08h308.35l-2.03 2.35L614.4 250.93M106.72 105.68v636.65M742.53 105.51v636.65M380.43 421.37v57.25H268.28v-100h112.15zM459.44 592.37V380.15h112.14v212.22"/><path stroke="#231f20" stroke-width="12.214" d="M324.31 380.15v93.13M324.31 421.37h56.12"/><path stroke="#231f20" stroke-width="24.428" d="M424.25 508.19v187.33M479.04 634.28l-54.99 62.43-54.98-62.53"/><path stroke="#f6cc4b" d="M712 738l9.64-3.75 7.93-3.08 12.96-5.04L748 724"/></g><path fill="none" d="M0 0h850.394v850.394H0z"/></svg>
